TileServer und Tiles/svg/5/3_0.svg

<?xml version='1.0' encoding='UTF-8' standalone='no'?>
<svg width="497pt" viewBox="0 0 497 279" xmlns:xlink="http://www.w3.org/1999/xlink" xmlns="http://www.w3.org/2000/svg" height="279pt">
 <defs overflow="visible" style="stroke:none;">
  <path d="M 10.28125 -6.078125 L 10.28125 -6.890625 L 5.921875 -6.890625 L 5.921875 -9.203125 L 5.078125 -9.203125 L 5.078125 -6.890625 L 0.75 -6.890625 L 0.75 -6.078125 L 4.5625 -6.078125 C 3.640625 -4.203125 2.046875 -2.421875 0.375 -1.546875 C 0.5625 -1.390625 0.84375 -1.09375 0.953125 -0.890625 C 2.578125 -1.828125 4.0625 -3.484375 5.078125 -5.390625 L 5.078125 -2.03125 L 2.921875 -2.03125 L 2.921875 -1.203125 L 5.078125 -1.203125 L 5.078125 0.84375 L 5.921875 0.84375 L 5.921875 -1.203125 L 8.015625 -1.203125 L 8.015625 -2.03125 L 5.921875 -2.03125 L 5.921875 -5.390625 C 6.90625 -3.484375 8.375 -1.8125 10.046875 -0.90625 C 10.15625 -1.140625 10.453125 -1.453125 10.640625 -1.609375 C 8.921875 -2.453125 7.34375 -4.203125 6.421875 -6.078125 Z M 10.28125 -6.078125 " id="glyph0-2"/>
  <path d="M 2.8125 -0.796875 L 2.8125 -3.875 L 8.265625 -3.875 L 8.265625 -0.796875 Z M 8.265625 -7.640625 L 8.265625 -4.671875 L 2.8125 -4.671875 L 2.8125 -7.640625 Z M 1.984375 -8.453125 L 1.984375 0.71875 L 2.8125 0.71875 L 2.8125 0 L 8.265625 0 L 8.265625 0.671875 L 9.125 0.671875 L 9.125 -8.453125 Z M 1.984375 -8.453125 " id="glyph0-1"/>
  <path d="M 1.09375 1.3125 L 9.90625 1.3125 L 9.90625 -9.6875 L 1.09375 -9.6875 Z M 5.5 -4.625 L 2 -9.125 L 9 -9.125 Z M 5.859375 -4.1875 L 9.34375 -8.671875 L 9.34375 0.3125 Z M 2 0.765625 L 5.5 -3.734375 L 9 0.765625 Z M 1.65625 -8.671875 L 5.140625 -4.1875 L 1.65625 0.3125 Z M 1.65625 -8.671875 " id="glyph0-0"/>
 </defs>
 <image xlink:href="svg/5/3_0.jpg" width="497" height="279"/>
 <g>
  <path d="M 41.605469 206.808594 L 41.605469 203.730469 L 47.058594 203.730469 L 47.058594 206.808594 Z M 47.058594 199.964844 L 47.058594 202.933594 L 41.605469 202.933594 L 41.605469 199.964844 Z M 40.777344 199.152344 L 40.777344 208.324219 L 41.605469 208.324219 L 41.605469 207.605469 L 47.058594 207.605469 L 47.058594 208.277344 L 47.917969 208.277344 L 47.917969 199.152344 Z M 40.777344 199.152344 " transform=" rotate(  340 50.2947 204.605) " style="fill:none;stroke-width:3;stroke-linecap:butt;stroke-linejoin:round;stroke:rgb(100%,100%,100%);stroke-opacity:0.6;stroke-miterlimit:10;"/>
  <path d="M 60.574219 201.527344 L 60.574219 200.714844 L 56.214844 200.714844 L 56.214844 198.402344 L 55.371094 198.402344 L 55.371094 200.714844 L 51.042969 200.714844 L 51.042969 201.527344 L 54.855469 201.527344 C 53.933594 203.402344 52.339844 205.183594 50.667969 206.058594 C 50.855469 206.214844 51.136719 206.511719 51.246094 206.714844 C 52.871094 205.777344 54.355469 204.121094 55.371094 202.214844 L 55.371094 205.574219 L 53.214844 205.574219 L 53.214844 206.402344 L 55.371094 206.402344 L 55.371094 208.449219 L 56.214844 208.449219 L 56.214844 206.402344 L 58.308594 206.402344 L 58.308594 205.574219 L 56.214844 205.574219 L 56.214844 202.214844 C 57.199219 204.121094 58.667969 205.792969 60.339844 206.699219 C 60.449219 206.464844 60.746094 206.152344 60.933594 205.996094 C 59.214844 205.152344 57.636719 203.402344 56.714844 201.527344 Z M 60.574219 201.527344 " transform=" rotate(  340 50.2947 204.605) " style="fill:none;stroke-width:3;stroke-linecap:butt;stroke-linejoin:round;stroke:rgb(100%,100%,100%);stroke-opacity:0.6;stroke-miterlimit:10;"/>
  <g transform=" rotate(  340 50.2947 204.605) " style="fill:rgb(39.607843%,24.313725%,39.215686%);fill-opacity:1;">
   <use x="38.794656" xlink:href="#glyph0-1" y="207.605467"/>
   <use x="50.294656" xlink:href="#glyph0-2" y="207.605467"/>
  </g>
 </g>
</svg>

<svg xmlns="http://www.w3.org/2000/svg" xmlns:xlink="http://www.w3.org/1999/xlink" viewBox="0 0 497 279"> <defs overflow="visible" style="stroke:none">  <path id="b" d="M10.3-6v-1H5.9v-2.2h-.8v2.3H.8v.9h3.7C3.6-4.2 2-2.4.4-1.5L1-1c1.6-.9 3-2.5 4-4.4V-2H3v.8h2v2h1v-2h2V-2H6v-3.4c1 2 2.3 3.6 4 4.5l.6-.7C9-2.5 7.3-4.2 6.4-6.1Zm0 0"/>  <path id="a" d="M2.8-.8v-3h5.5v2.9Zm5.5-6.8v3H2.8v-3.1ZM2-8.5V.7h.8V0h5.5v.7H9v-9.2Zm0 0"/>  <path d="M1 1.3h9v-11H1Zm4.6-6L2-9h7Zm.3.6 3.4-4.6v9ZM2 .8l3.5-4.5L9 .8Zm-.3-9.5L5-4.2 1.7.3Zm0 0"/> </defs> <image xlink:href="svg/5/3_0.jpg" width="497" height="279"/> <path d="M41.6 206.8v-3h5.5v2.9Zm5.5-6.8v3h-5.5v-3Zm-6.3-.8v9.1h.8v-.7h5.5v.7h.8v-9.1Zm19.8 2.3v-.8h-4.4v-2.3h-.8v2.3H51v.8h4c-1.1 1.9-2.7 3.7-4.3 4.6l.5.6c1.8-1 3.2-2.6 4.2-4.5v3.4h-2.2v.8h2.2v2h.8v-2h2.1v-.8h-2v-3.4c.8 2 2.3 3.6 3.9 4.5l.8-.7c-1.8-.8-3.4-2.6-4.3-4.5Zm0 0" style="fill:none;stroke-width:3;stroke-linecap:butt;stroke-linejoin:round;stroke:#fff;stroke-opacity:.6;stroke-miterlimit:10" transform=" rotate(  340 50.2947 204.605) "/> <g style="fill:#653e64;fill-opacity:1" transform=" rotate(  340 50.2947 204.605) ">  <use xlink:href="#a" x="38.8" y="207.6"/>  <use xlink:href="#b" x="50.3" y="207.6"/> </g></svg>
